icons/16px/toolkit.svg

<svg width="16" height="16" viewBox="0 0 16 16" fill="none" xmlns="http://www.w3.org/2000/svg">
<path fill-rule="evenodd" clip-rule="evenodd" d="M4 3.5C4 2.67157 4.67157 2 5.5 2H10.5C11.3284 2 12 2.67157 12 3.5V5H13.5C14.3284 5 15 5.67157 15 6.5V13.6C15 13.8209 14.8209 14 14.6 14H1.4C1.17909 14 1 13.8209 1 13.6V6.5C1 5.67157 1.67157 5 2.5 5H4V3.5ZM5.5 5H10.5V3.5H5.5V5ZM2.5 6.5H13.5V8.75722H10V8.4C10 8.17909 9.82091 8 9.6 8H6.4C6.17909 8 6 8.17909 6 8.4V8.75722H2.5V6.5ZM2.5 10.2572V12.5H13.5V10.2572H10V10.6C10 10.8209 9.82091 11 9.6 11H6.4C6.17909 11 6 10.8209 6 10.6V10.2572H2.5Z" fill="black"/>
</svg>

<?xml version="1.0" encoding="UTF-8"?>
<svg id="Layer_1" data-name="Layer 1" xmlns="http://www.w3.org/2000/svg" viewBox="0 0 16 16">
  <defs>
    <style>
      .cls-1 {
        fill-rule: evenodd;
        stroke-width: 0px;
      }
    </style>
  </defs>
  <path class="cls-1" d="m4,3.5c0-.8284.6716-1.5,1.5-1.5h5c.8284,0,1.5.6716,1.5,1.5v1.5h1.5c.8284,0,1.5.6716,1.5,1.5v7.1c0,.2209-.1791.4-.4.4H1.4c-.2209,0-.4-.1791-.4-.4v-7.1c0-.8284.6716-1.5,1.5-1.5h1.5v-1.5Zm1.5,1.5h5v-1.5h-5v1.5Zm-3,1.5h11v2.2572h-3.5v-.3572c0-.2209-.1791-.4-.4-.4h-3.2c-.2209,0-.4.1791-.4.4v.3572h-3.5v-2.2572Zm0,3.7572v2.2428h11v-2.2428h-3.5v.3428c0,.2209-.1791.4-.4.4h-3.2c-.2209,0-.4-.1791-.4-.4v-.3428h-3.5Z"/>
</svg>
